build/flags/AmericanSamoa.svg

<svg xmlns="http://www.w3.org/2000/svg" fill="none" viewBox="0 0 28 28" focusable="false"><defs><filter id="American_Samoa_svg__a"><feColorMatrix values="0 0 0 0 1 0 0 0 0 1 0 0 0 0 1 0 0 0 1 0"/></filter></defs><mask id="American_Samoa_svg__b" width="28" height="20" x="0" y="0" maskUnits="objectBoundingBox"><g filter="url(#American_Samoa_svg__a)"><path fill="#000661" d="M3 0L25 0C26.6569 0 28 1.34315 28 3L28 17C28 18.6569 26.6569 20 25 20L3 20C1.34315 20 0 18.6569 0 17L0 3C0 1.34315 1.34315 0 3 0Z" transform="matrix(1 0 0 -1 0 24)"/></g></mask><path fill="none" d="M0 0H28V28H0z"/><path fill="#FFF" d="M0 3C0 1.34315 1.34315 0 3 0L25 0C26.6569 0 28 1.34315 28 3L28 17C28 18.6569 26.6569 20 25 20L3 20C1.34315 20 0 18.6569 0 17L0 3Z" transform="matrix(1 0 0 -1 0 24)"/><path fill="#D6D8DD" fill-rule="evenodd" d="M3 0C1.34315 0 0 1.34315 0 3L0 17C0 18.6569 1.34315 20 3 20L25 20C26.6569 20 28 18.6569 28 17L28 3C28 1.34315 26.6569 0 25 0L3 0ZM3 0.5L25 0.5C25.1915 0.5 25.3782 0.520836 25.5602 0.562508C25.7006 0.594676 25.8382 0.639259 25.973 0.696257C26.1114 0.754813 26.2425 0.824554 26.3664 0.905477C26.51 0.999348 26.6438 1.10827 26.7678 1.23223C26.8917 1.35619 27.0006 1.48998 27.0945 1.63361C27.1754 1.75744 27.2452 1.88859 27.3037 2.02704C27.3607 2.16178 27.4053 2.29935 27.4375 2.43977C27.4792 2.62174 27.5 2.80848 27.5 3L27.5 17C27.5 17.1915 27.4792 17.3782 27.4375 17.5602C27.4053 17.7006 27.3607 17.8382 27.3037 17.973C27.2452 18.1114 27.1754 18.2426 27.0945 18.3664C27.0006 18.51 26.8917 18.6438 26.7678 18.7678C26.6438 18.8917 26.51 19.0006 26.3664 19.0945C26.2426 19.1754 26.1114 19.2452 25.973 19.3037C25.8382 19.3607 25.7006 19.4053 25.5602 19.4375C25.3782 19.4792 25.1915 19.5 25 19.5L3 19.5C2.80849 19.5 2.62175 19.4792 2.43978 19.4375C2.29936 19.4053 2.16178 19.3607 2.02704 19.3037C1.88858 19.2452 1.75742 19.1754 1.63358 19.0945C1.48997 19.0006 1.35618 18.8917 1.23223 18.7678C1.10827 18.6438 0.99935 18.51 0.90548 18.3664C0.824555 18.2425 0.754814 18.1114 0.696257 17.973C0.639259 17.8382 0.594676 17.7006 0.562509 17.5602C0.520836 17.3782 0.5 17.1915 0.5 17L0.5 3C0.5 2.8085 0.520838 2.62178 0.562513 2.43983C0.59468 2.29939 0.639262 2.16179 0.696257 2.02704C0.754818 1.88859 0.824564 1.75745 0.905494 1.63361C0.999361 1.48999 1.10827 1.35619 1.23223 1.23223C1.3562 1.10827 1.48999 0.999353 1.63363 0.905484C1.75746 0.824558 1.88859 0.754815 2.02704 0.696257C2.16179 0.639262 2.29939 0.594681 2.43982 0.562514C2.62178 0.520838 2.8085 0.5 3 0.5Z" transform="matrix(1 0 0 -1 0 24)"/><g mask="url(#American_Samoa_svg__b)"><path fill="#8C301C" fill-rule="evenodd" d="M22.106 16.143C22.106 16.143 21.911 15.963 22.142 15.673C22.017 15.553 22.132 15.323 22.132 15.323C22.132 15.323 21.92 15.233 22.142 14.863C21.982 14.743 22.052 14.473 22.052 14.473C22.052 14.473 21.529 14.253 22.026 14.043C21.619 14.243 21.236 13.773 21.236 13.773L20.642 13.793C20.542 13.237 19.759 13.72 20.34 12.123C20.19 12.095 20.021 12.044 19.852 12.184C19.684 12.324 19.205 12.624 18.921 12.324C18.638 12.024 19.107 11.594 19.117 11.584C19.125 11.574 19.747 11.214 19.835 10.974C19.827 10.794 19.631 10.654 19.808 10.264C20.013 9.894 21.263 9.545 21.831 9.425C22.106 9.285 22.231 9.015 22.231 9.015L22.293 9.275C22.293 9.275 23.552 8.855 23.614 8.655C23.677 8.455 23.641 8.835 23.641 8.835C24.137 8.785 24.768 8.305 24.856 8.525C25.273 8.435 26.072 8.035 26.072 8.035C26.072 8.035 26.346 8.025 26.152 8.365C26.189 8.42932 26.2046 8.50379 26.1963 8.57756C26.188 8.65132 26.1564 8.7205 26.106 8.775C26.097 8.775 26.16 8.995 26.001 9.115C26.053 9.305 25.902 9.455 25.902 9.455C25.902 9.455 25.974 9.685 25.69 9.805C25.716 10.005 25.53 10.045 25.53 10.045C25.53 10.045 25.557 10.255 25.432 10.345C25.432 10.505 25.292 10.585 25.292 10.585C25.292 10.585 25.379 10.645 25.255 10.744C25.131 10.844 23.845 11.734 23.845 11.724C23.845 11.714 24.785 11.914 24.847 11.954C24.909 11.994 25.618 12.524 25.618 12.524L24.9 13.523C24.9 13.523 24.102 13.423 24.066 13.473C24.031 13.523 24.235 13.543 24.28 13.623C24.324 13.703 24.395 13.893 24.536 13.873C24.678 13.853 24.27 14.163 24.004 14.193C24.004 14.303 24.341 14.313 24.43 14.223C24.519 14.133 24.217 14.483 24.182 14.533C24.146 14.583 24.582 14.463 24.582 14.463C24.582 14.463 24.51 14.793 24.129 14.893C24.279 15.173 24.217 15.353 24.209 15.353C24.2 15.353 23.959 15.073 23.729 15.123C23.792 15.393 23.979 15.643 24.031 15.683C24.084 15.723 23.614 15.713 23.551 15.563C23.491 15.413 23.436 15.923 23.606 16.083C23.41 16.093 23.242 15.963 23.242 15.963C23.242 15.963 23.126 16.263 23.206 16.413C23.286 16.562 22.931 16.113 22.931 16.113L22.257 16.433L22.107 16.143L22.106 16.143Z"/><path fill="#F0BC1E" fill-rule="evenodd" d="M16.896 15.548C16.911 15.548 17.876 15.53 18.318 15.244 18.538 15.637 18.839 15.904 18.839 15.904L18.981 15.334C18.981 15.334 19.328 15.351 19.361 15.441 19.313 15.548 19.297 15.691 19.297 15.691 19.297 15.691 19.534 15.708 19.55 15.743 19.565 15.779 19.486 16.081 19.486 16.081L20.498 16.349C20.498 16.349 20.576 15.904 20.656 15.957 20.734 16.011 21.082 16.562 21.572 16.599 22.062 16.634 22.092 16.135 22.092 16.135L22.203 16.207C22.203 16.207 22.409 15.707 22.44 15.707 22.472 15.707 22.52 15.779 22.788 15.779 22.867 15.886 22.898 16.135 22.898 16.135 22.898 16.135 22.598 16.474 22.694 16.741 22.788 17.007 22.804 16.936 22.804 16.936L24.984 17.524C24.984 17.524 25.094 17.719 24.904 17.826 24.904 17.844 22.709 17.256 22.709 17.256 22.709 17.256 22.504 17.524 22.346 17.47 22.187 17.417 22.298 17.577 22.298 17.577L24.668 17.79C24.668 17.79 24.842 18.04 24.715 18.111 24.558 18.129 22.156 17.933 22.156 17.933 22.156 17.933 22.014 18.272 21.856 17.987 21.746 18.182 21.619 17.933 21.619 17.933 21.619 17.933 21.414 18.111 21.382 17.916 21.208 18.058 21.097 17.826 21.097 17.826L20.087 17.755 20.024 17.862C20.024 17.862 20.197 17.916 19.929 18.04 19.659 18.164 21.54 18.111 21.587 18.13 21.635 18.147 21.461 18.307 21.461 18.307 21.461 18.307 22.424 18.379 22.599 18.147 22.772 17.916 22.535 18.449 22.535 18.449 22.535 18.449 23.293 18.414 23.293 18.379 23.293 18.342 23.277 18.645 22.756 18.609 23.072 18.841 23.466 18.984 23.466 18.984 23.466 18.984 23.072 19.09 22.614 18.966 22.694 19.197 23.04 19.411 23.04 19.411 23.04 19.411 22.788 19.661 22.22 19.055 22.377 19.375 22.25 19.5 22.235 19.464 22.22 19.429 21.95 18.984 21.319 18.824 21.713 19.108 21.54 19.233 21.54 19.233 21.54 19.233 21.334 18.823 21.003 19.233 20.877 18.86 20.387 18.645 19.787 18.61 19.597 18.36 19.487 18.432 19.044 18.29 18.792 17.969 18.428 17.612 18.428 17.612 18.428 17.612 18.444 17.132 18.87 17.186 18.918 17.346 18.918 17.293 18.918 17.293 18.918 17.293 19.391 17.096 19.534 17.363 19.74 16.954 20.024 17.303 20.071 17.444 20.207 17.467 20.893 17.488 20.893 17.488 20.893 17.488 20.813 17.328 20.861 17.346 20.908 17.363 21.287 17.186 21.271 17.132 21.256 17.079 21.239 16.901 21.303 16.918 21.367 16.936 20.766 16.829 20.434 17.114 20.324 16.989 20.403 16.651 20.403 16.651L19.423 16.421 19.376 16.705C19.376 16.705 19.091 16.758 19.107 16.687 19.124 16.615 19.044 16.937 19.044 16.937 19.044 16.937 18.664 16.829 18.664 16.812 18.664 16.794 18.775 16.171 18.775 16.188 18.775 16.207 18.46 16.225 18.017 16.598 17.891 16.154 16.897 15.565 16.897 15.548L16.896 15.548ZM18.128 14.088C18.128 14.088 17.465 14.728 18.128 15.103 18.16 14.853 18.207 14.818 18.207 14.818 18.207 14.818 18.759 15.05 19.091 14.498 18.949 14.266 18.697 14.355 18.697 14.355 18.697 14.355 18.176 14.355 18.128 14.088Z"/><path fill="#F8EBC1" fill-rule="evenodd" d="M18.15 14.093C18.15 14.093 18.238 13.993 18.265 13.873C18.292 13.753 18.23 13.623 18.336 13.513C18.443 13.403 19.844 12.734 19.959 12.604C20.074 12.474 20.288 12.194 20.314 12.134C20.34 12.074 20.421 12.434 20.181 12.593C20.438 12.513 20.607 12.423 20.713 12.463C20.607 12.633 20.323 12.913 20.189 12.913C20.501 12.783 20.784 12.673 20.864 12.743C20.944 12.813 20.483 13.163 20.296 13.183C20.607 13.093 21.024 12.953 21.076 13.103C20.909 13.163 20.962 13.213 20.616 13.433C20.572 13.473 20.35 13.483 20.35 13.483C20.616 13.453 20.979 13.333 21.015 13.553C20.802 13.643 20.722 13.764 20.545 13.813C20.367 13.863 19.959 13.953 19.711 14.063C19.463 14.173 19.099 14.493 19.099 14.493C19.099 14.493 18.309 14.523 18.309 14.513C18.309 14.503 18.159 14.103 18.149 14.093"/><path fill="#100F0D" d="M18.55 14.025L18.495 14.022C18.495 14.012 18.505 13.807 18.595 13.729C18.623 13.704 18.685 13.67 18.762 13.627C18.905 13.548 19.101 13.44 19.156 13.347C19.178 13.31 19.191 13.291 19.213 13.305C19.236 13.32 19.229 13.336 19.205 13.39C19.176 13.458 19.088 13.664 19.107 13.723L19.056 13.743C19.038 13.688 19.068 13.586 19.112 13.473C19.018 13.553 18.892 13.623 18.786 13.681L18.728 13.714C18.802 13.757 18.893 13.85 18.858 13.982L18.807 13.965C18.843 13.825 18.68 13.755 18.673 13.752L18.675 13.744C18.6581 13.7537 18.6421 13.7647 18.627 13.777C18.57 13.827 18.552 13.973 18.549 14.025"/><path fill="#100F0D" d="M18.766 13.699C18.698 13.699 18.642 13.762 18.642 13.839C18.642 13.915 18.698 13.977 18.766 13.977C18.834 13.977 18.889 13.915 18.889 13.839C18.889 13.761 18.834 13.699 18.766 13.699ZM18.766 14.029C18.672 14.029 18.596 13.944 18.596 13.839C18.596 13.732 18.672 13.646 18.766 13.646C18.859 13.646 18.936 13.732 18.936 13.839C18.936 13.944 18.859 14.029 18.766 14.029Z"/><path fill="#F8EBC1" fill-rule="evenodd" d="M24.918 13.483L26.453 13.813C26.453 13.813 26.621 13.593 26.533 13.473C26.763 13.413 26.701 13.074 26.701 13.074C26.701 13.074 26.967 12.944 26.745 12.644C26.897 12.474 26.71 12.344 26.71 12.344C26.71 12.344 26.772 12.044 26.577 12.014C26.629 11.774 26.24 11.694 26.24 11.694C26.24 11.694 25.432 11.944 24.864 11.964C25.051 12.174 24.794 12.304 24.794 12.304C24.794 12.304 24.944 12.424 24.9 12.524C24.856 12.624 24.927 12.734 24.732 12.804C24.99 12.934 24.705 13.154 24.705 13.154C24.705 13.154 24.99 13.374 24.918 13.484L24.918 13.483Z"/><path fill="#000661" d="M28 24L0 24L0 14L28 24ZM0 4L28 4L0 14L0 4Z"/><path fill="#AB1A2E" d="M0 14L28 4L28 5L3 14L28 23L28 24L0 14Z"/></g></svg>

<svg xmlns="http://www.w3.org/2000/svg" fill="none" viewBox="0 0 28 28" focusable="false"><path fill="none" d="M0 0h28v28H0z"/><path fill="#FFF" d="M0 21c0 1.65 1.34 3 3 3h22c1.65 0 3-1.35 3-3V7c0-1.66-1.35-3-3-3H3C1.34 4 0 5.34 0 7z"/><path fill="#D6D8DD" fill-rule="evenodd" d="M3 24c-1.66 0-3-1.35-3-3V7c0-1.66 1.34-3 3-3h22c1.65 0 3 1.34 3 3v14c0 1.65-1.35 3-3 3zm0-.5h22q.28 0 .56-.07.21-.05.41-.13.21-.09.39-.21.22-.14.4-.33.19-.18.33-.4.12-.18.21-.39.08-.2.13-.41.07-.28.07-.56V7q0-.29-.07-.57-.05-.21-.13-.41-.09-.21-.21-.39-.14-.22-.33-.4-.18-.19-.4-.33-.18-.12-.39-.21-.2-.08-.41-.13-.28-.06-.56-.06H3q-.29 0-.57.06-.21.05-.41.13-.21.09-.39.21-.22.14-.4.33-.19.18-.33.4-.12.18-.21.39-.08.2-.13.41Q.5 6.71.5 7v14q0 .28.06.56.05.21.13.41.09.21.21.39.14.22.33.4.18.19.4.33.18.12.39.21.2.08.41.13.28.07.57.07"/><mask id="American_Samoa_svg__a" width="28" height="20" x="0" y="4" mask-type="alpha" maskUnits="userSpaceOnUse"><path fill="#000661" d="M3 24h22c1.65 0 3-1.35 3-3V7c0-1.66-1.35-3-3-3H3C1.34 4 0 5.34 0 7v14c0 1.65 1.34 3 3 3"/></mask><g mask="url(#American_Samoa_svg__a)"><path fill="#8C301C" fill-rule="evenodd" d="M22.1 16.14s-.19-.18.04-.47c-.13-.12-.01-.35-.01-.35s-.21-.09.01-.46c-.16-.12-.09-.39-.09-.39s-.53-.22-.03-.43c-.41.2-.79-.27-.79-.27l-.59.02c-.1-.56-.89-.07-.3-1.67-.15-.03-.32-.08-.49.06s-.65.44-.93.14c-.29-.3.18-.73.19-.74s.63-.37.72-.61c-.01-.18-.2-.32-.03-.71.21-.37 1.46-.72 2.03-.84.27-.14.4-.41.4-.41l.06.26s1.26-.42 1.32-.62.03.18.03.18c.49-.05 1.12-.53 1.21-.31.42-.09 1.22-.49 1.22-.49s.27-.01.08.33c.03.06.05.14.04.21-.01.08-.04.15-.09.2-.01 0 .06.22-.1.34.05.19-.1.34-.1.34s.07.23-.21.35c.02.2-.16.24-.16.24s.02.21-.1.3c0 .16-.14.24-.14.24s.08.06-.04.16-1.41.99-1.41.98.94.19 1 .23.77.57.77.57l-.71 1s-.8-.1-.84-.05c-.03.05.17.07.22.15.04.08.11.27.25.25s-.26.29-.53.32c0 .11.34.12.43.03.08-.09-.22.26-.25.31-.04.05.4-.07.4-.07s-.07.33-.46.43c.15.28.09.46.08.46 0 0-.25-.28-.48-.23.07.27.25.52.31.56.05.04-.42.03-.48-.12s-.12.36.05.52c-.19.01-.36-.12-.36-.12s-.12.3-.04.45-.27-.3-.27-.3l-.68.32z"/></g><g mask="url(#American_Samoa_svg__a)"><path fill="#F0BC1E" fill-rule="evenodd" d="M16.89 15.54c.02 0 .98-.01 1.42-.3.22.39.52.66.52.66l.15-.57s.34.02.38.11c-.05.1-.07.25-.07.25s.24.01.25.05c.02.03-.06.34-.06.34l1.01.26s.08-.44.16-.39c.08.06.43.61.92.64.49.04.52-.46.52-.46l.11.07s.2-.5.24-.5c.03 0 .08.07.34.07.08.11.11.36.11.36s-.3.34-.2.61c.09.26.11.19.11.19l2.18.59s.11.19-.08.3c0 .02-2.2-.57-2.2-.57s-.2.27-.36.21c-.16-.05-.05.11-.05.11l2.37.22s.18.25.05.32c-.16.01-2.56-.18-2.56-.18s-.14.34-.3.05c-.11.2-.24-.05-.24-.05s-.2.18-.23-.02c-.18.14-.29-.09-.29-.09l-1.01-.07-.06.11s.17.05-.1.18c-.27.12 1.62.07 1.66.08.05.02-.12.18-.12.18s.96.07 1.13-.16c.18-.23-.06.3-.06.3s.76-.03.76-.07c0-.03-.02.27-.54.23.32.24.71.38.71.38s-.39.11-.85-.02c.08.23.43.45.43.45s-.26.25-.82-.36c.15.32.03.45.01.41-.01-.04-.28-.48-.92-.64.4.28.23.41.23.41s-.21-.41-.54 0c-.13-.37-.62-.59-1.22-.62-.19-.25-.3-.18-.74-.32-.25-.33-.62-.68-.62-.68s.02-.48.45-.43c.04.16.04.11.04.11s.48-.2.62.07c.21-.41.49-.06.54.08.13.02.82.04.82.04s-.08-.16-.03-.14c.04.02.42-.16.41-.21-.02-.06-.04-.23.03-.22.06.02-.54-.09-.87.2-.11-.13-.03-.46-.03-.46l-.98-.23-.05.28s-.28.05-.27-.02c.02-.07-.06.25-.06.25s-.38-.11-.38-.12c0-.02.11-.64.11-.63 0 .02-.32.04-.76.41-.12-.44-1.12-1.03-1.12-1.05"/></g><g mask="url(#American_Samoa_svg__a)"><path fill="#F0BC1E" fill-rule="evenodd" d="M18.12 14.08s-.66.64 0 1.02c.04-.25.08-.29.08-.29s.55.24.89-.32c-.15-.23-.4-.14-.4-.14s-.52 0-.57-.27"/></g><g mask="url(#American_Samoa_svg__a)"><path fill="#F9EBC2" fill-rule="evenodd" d="M18.15 14.09s.08-.1.11-.22-.03-.25.07-.36c.11-.11 1.51-.78 1.62-.91.12-.13.33-.41.36-.47s.11.3-.13.46c.25-.08.42-.17.53-.13-.11.17-.39.45-.53.45.32-.13.6-.24.68-.17s-.38.42-.57.44c.31-.09.73-.23.78-.08-.17.06-.11.11-.46.33-.04.04-.26.05-.26.05.26-.03.62-.15.66.07-.21.09-.29.21-.47.26s-.59.14-.83.25c-.25.11-.62.43-.62.43s-.79.03-.79.02-.15-.41-.16-.42z"/></g><g mask="url(#American_Samoa_svg__a)"><path fill="#100F0D" d="M18.54 14.02h-.05c0-.01.01-.22.1-.3.03-.02.09-.05.17-.1.14-.08.34-.18.39-.28.02-.03.04-.05.06-.04.02.02.01.03-.01.09-.03.06-.12.27-.1.33l-.05.02c-.02-.06.01-.16.06-.27-.1.08-.22.15-.33.21l-.06.03c.08.04.17.14.13.27l-.05-.02c.04-.14-.12-.21-.13-.21v-.01c-.02.01-.03.02-.05.03-.05.05-.07.2-.08.25"/></g><g mask="url(#American_Samoa_svg__a)"><path fill="#100F0D" d="M18.76 13.69c-.07 0-.12.07-.12.14 0 .08.05.14.12.14s.12-.06.12-.14c0-.07-.05-.14-.12-.14m0 .33c-.09 0-.17-.08-.17-.19 0-.1.08-.19.17-.19s.17.09.17.19c0 .11-.08.19-.17.19"/></g><g mask="url(#American_Samoa_svg__a)"><path fill="#F9EBC2" fill-rule="evenodd" d="m24.91 13.48 1.54.33s.17-.22.08-.34c.23-.06.17-.4.17-.4s.26-.13.04-.43c.15-.17-.03-.3-.03-.3s.06-.3-.14-.33c.05-.24-.33-.32-.33-.32s-.81.25-1.38.27c.19.21-.07.34-.07.34s.15.12.11.22c-.05.1.02.21-.17.28.26.13-.03.35-.03.35s.29.22.21.33"/></g><g mask="url(#American_Samoa_svg__a)"><path fill="#000661" d="M28 24H0V14zM0 4h28L0 14z"/></g><g mask="url(#American_Samoa_svg__a)"><path fill="#AB1A2E" d="M0 14 28 4v1L3 14l25 9v1z"/></g></svg>
